!!!COM: Claude Goudimel
!!!OMD: Psalm 75: O Seigneur, loué sera
**kern	**kern	**kern	**kern
*part4	*part3	*part2	*part1
*staff4	*staff3	*staff2	*staff1
*clefF4	*clefGv2	*clefG2	*clefG2
*k[b-]	*k[b-]	*k[b-]	*k[b-]
!!LO:TX:omd:t=
*M4/4	*M4/4	*M4/4	*M4/4
=1	=1	=1	=1
2F	2f	2a	2cc
2G	2d	2g	2b-
=2	=2	=2	=2
4D	4d	4f	4a
4BB-	4f	4b-	4dd
2F	2f	2a	2cc
=3	=3	=3	=3
2G	2d	2g	2b-
4D	4d	4f	4a
4BB-	4f	4b-	4dd
=4	=4	=4	=4
2F	2f	2a	2cc
2G	2d	2g	2b-
=5	=5	=5	=5
4D	4d	2f	2a
4F	4c	.	.
2C	2c	4e	4g
.	.	4e	4g
=6	=6	=6	=6
2F	2c	2f	2f
2r	2r	2r	2r
=7	=7	=7	=7
2F	2A	2c	2f
2F	2c	2f	2a
=8	=8	=8	=8
4C	4c	4e	4g
4C	4e	4g	4cc
4F	4f	4a	4cc
4G	4d	4g	4bn
=9	=9	=9	=9
2C	2e	2g	2cc
4BB-	4f	4b-	4dd
4BB-	4f	4b-	4dd
=10	=10	=10	=10
4F	4f	4a	4cc
4F	4f	4a	4a
4G	4d	4g	4b-
4G	4d	4g	4b-
=11	=11	=11	=11
2D	2d	2f#X	2a
2r	2r	2r	2r
=12	=12	=12	=12
2F	2f	2a	2cc
2G	2d	2g	2b-
=13	=13	=13	=13
4D	4d	4f	4a
4C	4G	4g	4cc
4E-X	4G	4g	4b-
4F	4c	4f	4a
=14	=14	=14	=14
2C	2c	2e	2g
2r	2r	2r	2r
=15	=15	=15	=15
2F	2c	2f	2a
2F	2f	2a	2cc
=16	=16	=16	=16
4D	4A	4f	4f
4BB-	4d	2g	4b-
2F	2c	.	2a
.	.	[4f	.
=17	=17	=17	=17
2C	2c	4f]	2g
.	.	4e	.
[2F	[2c	[2f	[2f
=18	=18	=18	=18
2F]	2c]	2f]	2f]
2ryy	2ryy	2ryy	2ryy
==	==	==	==
*-	*-	*-	*-
!!!software: music21 v.9.7.1
!!!software: music21 v.8.3.0
!!!RDF**kern: > = above
!!!RDF**kern: < = below
